packages/icons/svgs/solid/Source=file-text.svg

<svg xmlns="http://www.w3.org/2000/svg" width="12" height="12" viewBox="0 0 12 12"><g clip-path="url(#a)"><path d="M10.5 0h-9C1.05 0 .75.3.75.75v10.5c0 .45.3.75.75.75h9c.45 0 .75-.3.75-.75V.75c0-.45-.3-.75-.75-.75ZM6 9.75H3v-1.5h3v1.5Zm3-3H3v-1.5h6v1.5Zm0-3H3v-1.5h6v1.5Z"/></g><defs><clipPath id="a"><path fill="#fff" d="M0 0h12v12H0z"/></clipPath></defs></svg>

<svg width="12" height="12" viewBox="0 0 12 12" fill="none" xmlns="http://www.w3.org/2000/svg">
<g clip-path="url(#clip0_659_4644)">
<path d="M10.5 0H1.5C1.05 0 0.75 0.3 0.75 0.75V11.25C0.75 11.7 1.05 12 1.5 12H10.5C10.95 12 11.25 11.7 11.25 11.25V0.75C11.25 0.3 10.95 0 10.5 0ZM6 9.75H3V8.25H6V9.75ZM9 6.75H3V5.25H9V6.75ZM9 3.75H3V2.25H9V3.75Z" fill="black"/>
</g>
<defs>
<clipPath id="clip0_659_4644">
<rect width="12" height="12" fill="white"/>
</clipPath>
</defs>
</svg>
